icons/16px/deployedCode.svg

<svg width="16" height="16" viewBox="0 0 16 16" fill="none" xmlns="http://www.w3.org/2000/svg">
<path fill-rule="evenodd" clip-rule="evenodd" d="M7.30606 2.1772C7.74728 1.94247 8.27643 1.94291 8.71726 2.17837L13.2067 4.5763C13.695 4.83714 14 5.34576 14 5.89939V10.1C14 10.654 13.6947 11.1629 13.2058 11.4235L8.70695 13.8228C8.26587 14.058 7.7366 14.0581 7.29548 13.8229L2.79438 11.4235C2.30544 11.1629 2 10.6539 2 10.0998V5.90108C2 5.34656 2.30593 4.83727 2.79549 4.57682L7.30606 2.1772ZM11.506 5.36847L8.01056 3.50146L4.49813 5.37008L8 7L11.506 5.36847ZM3.5 6.55403L3.5 10.0998L7.25045 12.0991V8.27564L3.5 6.55403ZM8.75045 12.0996L12.5 10.1L12.5 6.55444L8.75045 8.27564V12.0996Z" fill="black"/>
</svg>

<?xml version="1.0" encoding="UTF-8"?>
<svg id="Layer_1" data-name="Layer 1" xmlns="http://www.w3.org/2000/svg" viewBox="0 0 16 16">
  <defs>
    <style>
      .cls-1 {
        fill-rule: evenodd;
        stroke-width: 0px;
      }
    </style>
  </defs>
  <path class="cls-1" d="m7.3061,2.1772c.4412-.2347.9704-.2343,1.4112.0012l4.4894,2.3979c.4883.2608.7933.7695.7933,1.3231v4.2006c0,.554-.3053,1.0629-.7942,1.3235l-4.4988,2.3993c-.4411.2352-.9704.2353-1.4115.0001l-4.5011-2.3994c-.4889-.2606-.7944-.7696-.7944-1.3237v-4.1987c0-.5545.3059-1.0638.7955-1.3243l4.5106-2.3996Zm4.1999,3.1913l-3.4954-1.867-3.5124,1.8686,3.5019,1.6299,3.506-1.6315Zm-8.006,1.1856v3.5458l3.7505,1.9993v-3.8235l-3.7505-1.7216Zm5.2505,5.5456l3.7495-1.9996v-3.5456l-3.7495,1.7212v3.824Z"/>
</svg>
